X:40
T:Roling Tom. THO5.040
T:Rolling Tom
M:2/4
L:1/8
B:Thompson's Complete Collection of 200 Favourite Dances Vol.5
F:https://www.libraryofdance.org/manuals/1780c-Thompson-Compleat-5.pdf
Z:vmp. Peter Dunk 2024
Q:1/4=140
K:A
E|Acea|fedc|BAGA|BG E2|
Acea|fedc|BGEG|A3:|
|:e|faga|eaga|dcBA|GB TB2|
faga|eaga|dBAG|A3:|
W:
W:The 1st & 2nd Couple foot it and change sides ./.
W:The same back again ./:
W:Cross over one Couple :/.
W:Righ and left at top :/:

